outputs/icons/action/zoom_in_round.svg

<svg width="1200" height="1200" viewBox="0 0 1200 1200" fill="none" xmlns="http://www.w3.org/2000/svg"><g clip-path="url(#clip0_223_1914)"><path d="M724.995 650.005L721.495 686.505C781.495 616.505 812.495 521.005 795.495 419.507C771.995 280.507 655.995 169.507 515.995 152.507C304.495 126.507 126.995 304.507 152.495 516.005C169.495 656.005 280.495 772.005 419.495 795.505C520.995 812.505 616.495 781.505 686.495 721.505L649.995 725.005L912.995 987.505C933.495 1008.005 966.495 1008.005 986.995 987.505L987.495 987.005C1007.995 966.505 1007.995 933.505 987.495 913.005L724.995 650.005ZM474.995 700.005C350.495 700.005 249.995 599.505 249.995 475.007C249.995 350.507 350.495 250.007 474.995 250.007C599.495 250.007 699.995 350.507 699.995 475.007C699.995 599.505 599.495 700.005 474.995 700.005ZM474.995 350.007C460.995 350.007 449.995 361.007 449.995 375.007V450.007H374.995C360.995 450.007 349.995 461.007 349.995 475.007C349.995 489.007 360.995 500.005 374.995 500.005H449.995V575.005C449.995 589.005 460.995 600.005 474.995 600.005C488.995 600.005 499.995 589.005 499.995 575.005V500.005H574.995C588.995 500.005 599.995 489.007 599.995 475.007C599.995 461.007 588.995 450.007 574.995 450.007H499.995V375.007C499.995 361.007 488.995 350.007 474.995 350.007Z" fill="#1D1E23"/></g><defs><clipPath id="clip0_223_1914"><path width="24" fill="white" d="M0 0H1200V1200H0V0z"/></clipPath></defs></svg>

<svg xmlns="http://www.w3.org/2000/svg" width="1200" height="1200" fill="none"><g clip-path="url(#a)"><path fill="#000" d="m724.995 650.005-3.5 36.5c60-70 91-165.5 74-266.998-23.5-139-139.5-250-279.5-267-211.5-26-389 152-363.5 363.498 17 140 128 256 267 279.5 101.5 17 197-14 267-74l-36.5 3.5 263 262.5c20.5 20.5 53.5 20.5 74 0l.5-.5c20.5-20.5 20.5-53.5 0-74zm-250 50c-124.5 0-225-100.5-225-224.998 0-124.5 100.5-225 225-225s225 100.5 225 225c0 124.498-100.5 224.998-225 224.998m0-349.998c-14 0-25 11-25 25v75h-75c-14 0-25 11-25 25s11 24.998 25 24.998h75v75c0 14 11 25 25 25s25-11 25-25v-75h75c14 0 25-10.998 25-24.998s-11-25-25-25h-75v-75c0-14-11-25-25-25"/></g><defs><clipPath id="a"><path fill="#fff" d="M0 0h1200v1200H0z"/></clipPath></defs></svg>
